X:1
%
T:Mrs. Scott Moncrieff
M:C
L:1/8
R:Reel
S:Surenne – Dance Music of Scotland, pg. 123  (1852)
Z:AK/Fiddler’s Companion
K:D
B | AFAd BGBd | gfed ceef | AFAd BGBd | ceAg fddB |
AFAd BGBd | gfed ceef | AFAd BGBd | ceAg fdd ||
f | agfa bagf | gefd ceef | agfa bagf | gfed Addf |
agfa bagf | gefd cdef | dfeg fagb | afge fdd ||

